X: 1
T: the Irish Howl(e)    [G]
T: No Power on Earth can e'er divide
C: John Gay 1765
C: chords by Rebecca King 2016
%R: march,reel
Z: 2019 John Chambers <jc:trillian.mit.edu>
N: Tune for the Welsh dance Jac-y-Do or The Jackdaw
S: The Beggar's Opera, scene 15, air 39.
S: https://youtu.be/TCbZny0JMAM
S: https://youtu.be/3gVo_0K_IDI
S: https://youtu.be/tSElyIxYSE4 [dance + score at end]
S: https://dropbox.com/s/it91iwcedevk1mh/Irish%20Howle.pdf?dl=0
M: 4/4
L: 1/8
K: G
GA \
|  "G"B2B2 "D"A2AG | "Am"c2c2 "D"c2BA | "G"G3A  BcdA | "D"cBAG "G"G3B  |
|  "G"BAAG "D"F3G  | ABcd "G"B3c  | d3d  "C"edcB | "D"cBAG "G"G4   |]
[| "C"c2cc c3c  | "G"d2dd "D"d4   | "G"d3d  d2cB | "Bm"d3d  d2cB |
|  "Em"g2fe "D"d3e  | "G"dede dedB | "C"cBAG "G"GABc | "D"d6 |]
%
%W: No Power on Earth can e'er divide
%W: The Knot that sacred Love hath ty'd.
%W: When Parents draw against our Mind,
%W: The True-Love's Knot they faster bind.
%W:    Oh, oh ray, oh Amborah --- oh, oh, &c.
%W:        [Holding Macheath, Peachum pulling her.]
